packages/sources/assets/src/assets/ideal.svg

<svg width="58" height="40" fill="none" xmlns="http://www.w3.org/2000/svg"><rect x=".5" y=".5" width="57" height="39" rx="3.5" fill="#fff" stroke="#F3F3F3"/><path d="M10.7 3.7v32.45h18.9c12.5 0 17.9-7 17.9-16.25S42 3.7 29.6 3.7H10.7Z" fill="#fff"/><path fill-rule="evenodd" clip-rule="evenodd" d="M29.6 5.75H12.75V34.1H29.6c9.7 0 15.85-4.75 15.85-14.2 0-7.9-4.4-14.15-15.85-14.15ZM14.35 32.5V7.45H29.6c8.8 0 14.2 4 14.2 12.5 0 8.25-5 12.55-14.2 12.55H14.35Z" fill="#000"/><path d="M16.4 21.7h4.9v8.7h-4.9v-8.7Zm2.45-1.3a3.05 3.05 0 1 0 0-6.1 3.05 3.05 0 0 0 0 6.1Z" fill="#000"/><path fill-rule="evenodd" clip-rule="evenodd" d="M38.25 14.55h1.4v4.2h2.05c-.55-7.65-6.6-9.35-12.1-9.35h-5.85v5.15h.85c1.6 0 2.55 1.05 2.55 2.8 0 1.75-.95 2.8-2.5 2.8h-.9V30.4h5.85c8.95 0 12-4.15 12.15-10.25h-3.5v-5.6Zm-6.75 4.2v1.4H28v-5.6h3.4v1.4h-2v.65h1.9V18h-1.85v.75h2.05Zm2.3-4.2h2l1.7 5.6h-1.45l-.3-1.05H33.9l-.3 1.05h-1.5l1.7-5.6Zm.516 3.1H34.3v.05l.016-.05Zm0 0h.984l-.45-1.55h-.05l-.484 1.55Zm-10.566 1.1v-2.8h.85c.55 0 1.15.15 1.15 1.4s-.55 1.4-1.15 1.4h-.85Z" fill="#D50072"/></svg>

<svg width="58" height="40" viewBox="0 0 58 40" fill="none" xmlns="http://www.w3.org/2000/svg">
<rect x="0.5" y="0.5" width="57" height="39" rx="3.5" fill="white" stroke="#F3F3F3"/>
<path d="M10.7 3.69995V36.15H29.6C42.1 36.15 47.5 29.15 47.5 19.9C47.5 10.65 42 3.69995 29.6 3.69995H10.7Z" fill="white"/>
<path fill-rule="evenodd" clip-rule="evenodd" d="M29.6 5.75H12.75V34.1H29.6C39.3 34.1 45.45 29.35 45.45 19.9C45.45 12 41.05 5.75 29.6 5.75ZM14.35 32.5V7.45H29.6C38.4 7.45 43.8 11.45 43.8 19.95C43.8 28.2 38.8 32.5 29.6 32.5H14.35Z" fill="black"/>
<path d="M16.4 21.7H21.3V30.4H16.4V21.7Z" fill="black"/>
<path d="M18.85 20.4C20.5345 20.4 21.9 19.0345 21.9 17.35C21.9 15.6656 20.5345 14.3 18.85 14.3C17.1655 14.3 15.8 15.6656 15.8 17.35C15.8 19.0345 17.1655 20.4 18.85 20.4Z" fill="black"/>
<path fill-rule="evenodd" clip-rule="evenodd" d="M38.25 14.55H39.65V18.75H41.7C41.15 11.1 35.1 9.40002 29.6 9.40002H23.75V14.55H24.6C26.2 14.55 27.15 15.6 27.15 17.35C27.15 19.1 26.2 20.15 24.65 20.15H23.75V30.4H29.6C38.55 30.4 41.6 26.25 41.75 20.15H38.25V14.55ZM31.5 18.75V20.15H28V14.55H31.4V15.95H29.4V16.6H31.3V18H29.45V18.75H31.5ZM33.8 14.55H35.8L37.5 20.15H36.05L35.75 19.1H33.9L33.6 20.15H32.1L33.8 14.55ZM34.3156 17.65H34.3V17.7L34.3156 17.65ZM34.3156 17.65H35.3L34.85 16.1H34.8L34.3156 17.65ZM23.75 18.75V15.95H24.6C25.15 15.95 25.75 16.1 25.75 17.35C25.75 18.6 25.2 18.75 24.6 18.75H23.75Z" fill="#D50072"/>
</svg>
